X: 35903
T: Sandy MacIntyre's Trip To Boston
R: reel
M: 4/4
K: Amajor
E2 CE A,ECE|Acef ecce|f2 af ecAc|dBcA BAFD|
E2 CE A,ECE|Acef ecce|f2 af ecAc|dfec A2:|
eA (3cBA ecBc|ABce f2 fa|eA (3AAA ecBc|efec B2 Bf|
eA (3cBA ecBc|ABce f2 fg|agfe fgaf|ecdB A2:|

